X:24
T:The Eavesdropper
R:jig
M:6/8
L:1/8
K:G
D | GBB BAG | Bdd dBG | cee dBG | BAA ABA |
GBB BAG | Bdd dBG | cee dBA | BGG G2 ::
d | g3 afd | efg d2B | cee dBG | BAA ABd |
gab afd | efg dBG | cee dBA | BGG G2 :|
